X:169
T:German Polka. Le4.169
Q:1/4=100
L:1/8
B:L.Leadley MS#4 c1850
Z:vmp.Mike Hicken 2016 www.village-music-project.org.uk
N:Tune 103 in "The Fiddler of Helperby"
M:2/4
K:Bb
FBBB|B/>A/B/>c/ dF|fccc|c/>d/c/>B/ AF|FBBB|B/>A/B/>c/ dF|fAfA|BdBz:|
|:geee|e/>d/e/>f/ g2|fddd|d/>c/d/>e/ f2|eccc|c/>B/c/>d/ eA|B/>A/B/>c/ g/>f/e/>d/|c/>B/c/>d/ B2 :|

